X:211 
T:Master's Sporting Paddy (reel), The  
B:CRE4.155 (Peaidi Sportuil)
F:file ID: cre.4/211mas_sp
N:"The master" = Michael McDermott (Tyrone fiddler, d.1947)
L:1/8
Q:180
M:4/4
R:reel
K:Am
GA|B2GE DEGA|B2GA GEDG|B2GE DEGg|gedB A2GA|
B2 GE DEGA|B2 GA GEDG|B2 GE DEGg|gedB A2 A2 ||
BddG BGdG|BddB A2GA|BddG BGdG|BcBA GE E2|
BddG BGdG|BddB A2GA|Bde^f g2 g2|egdB HA4 |]

%%%

